X:1
T:"De ödsliga viddernas polska" av Per Saxholm
R:Polska
S:Efter Per Saxholm
O:Karlskoga, Värmland
B:
Z:ABC-transkribering av Per Saxholm
M:3/4
L:1/8
K:Dm
|ea ea ea|gc' gc' a2|f/e/f/g/ ae fd|e^c ^cA [A,A]2:|[K: A]Ac Ac B=G|BA Ac [Ae]2|ec Ac B=G|(3E=GB [A,A]4:|[K:Dm][DA]2(3FDF FE|(3E^CE DF [A,A]2|[DA]2(3FDF FE|(3E^CE DF [A,A]2|[DA]2(3FDF FE|(3E^CE [A,D]4:|

